svg/move_resize_variant.svg

<svg xmlns="http://www.w3.org/2000/svg" viewBox="0 0 24 24"><path d="M1.88.46.46 1.88 5.59 7H2v2h7V2H7v3.59M11 7v2h10v6h2V9a2 2 0 0 0-2-2M7 11v10a2 2 0 0 0 2 2h6v-2H9V11m6.88 3.46-1.42 1.42L19.6 21H17v2h6v-6h-2v2.59"/></svg>

<?xml version="1.0" encoding="UTF-8"?><!DOCTYPE svg PUBLIC "-//W3C//DTD SVG 1.1//EN" "http://www.w3.org/Graphics/SVG/1.1/DTD/svg11.dtd"><svg xmlns="http://www.w3.org/2000/svg" xmlns:xlink="http://www.w3.org/1999/xlink" version="1.1" id="mdi-move-resize-variant" width="24" height="24" viewBox="0 0 24 24"><path d="M1.88,0.46L0.46,1.88L5.59,7H2V9H9V2H7V5.59M11,7V9H21V15H23V9A2,2 0 0,0 21,7M7,11V21A2,2 0 0,0 9,23H15V21H9V11M15.88,14.46L14.46,15.88L19.6,21H17V23H23V17H21V19.59" /></svg>
